client/assets/amazon_music/light/icons8-amazon-music-82.svg

<svg xmlns="http://www.w3.org/2000/svg"  viewBox="0 0 50 50" width="82px" height="82px"><path d="M 14 4 C 8.4886661 4 4 8.4886661 4 14 L 4 36 C 4 41.511334 8.4886661 46 14 46 L 36 46 C 41.511334 46 46 41.511334 46 36 L 46 14 C 46 8.4886661 41.511334 4 36 4 L 14 4 z M 14 6 L 36 6 C 40.430666 6 44 9.5693339 44 14 L 44 36 C 44 40.430666 40.430666 44 36 44 L 14 44 C 9.5693339 44 6 40.430666 6 36 L 6 14 C 6 9.5693339 9.5693339 6 14 6 z M 34 18.009766 A 1 1 0 0 0 34 20.009766 A 1 1 0 0 0 34 18.009766 z M 9.25 21.009766 L 9.25 28.009766 L 10.75 28.009766 L 10.75 22.869141 C 11.242668 22.749795 11.737199 22.63579 12.226562 22.505859 C 12.726563 22.369859 13.202141 22.740016 13.244141 23.166016 L 13.251953 28.009766 L 14.751953 28.009766 L 14.753906 25.509766 L 14.759766 24.259766 L 14.753906 23.634766 L 14.75 23.318359 C 14.741534 23.172558 14.723729 23.027965 14.689453 22.884766 C 15.202471 22.760846 15.717076 22.641132 16.226562 22.505859 C 16.726562 22.368859 17.202141 22.741016 17.244141 23.166016 L 17.251953 28.009766 L 18.751953 28.009766 L 18.753906 25.509766 L 18.759766 24.259766 L 18.753906 23.634766 L 18.75 23.318359 C 18.741 23.163359 18.724547 23.009422 18.685547 22.857422 C 18.538547 22.248422 18.123797 21.725453 17.591797 21.439453 C 17.064797 21.146453 16.394375 21.108828 15.859375 21.298828 C 15.293468 21.491767 14.731792 21.700512 14.169922 21.908203 C 14.00164 21.721438 13.810124 21.556824 13.591797 21.439453 C 13.064797 21.146453 12.394375 21.108828 11.859375 21.298828 C 11.487747 21.42553 11.119723 21.565445 10.75 21.699219 L 10.75 21.009766 L 9.25 21.009766 z M 21.75 21.009766 L 20.251953 21.011719 L 20.253906 23.431641 C 20.244906 24.254641 20.236672 25.008672 20.263672 25.888672 C 20.306672 26.502672 20.640031 27.061969 21.082031 27.417969 C 21.527031 27.778969 22.073234 27.968906 22.615234 28.003906 C 23.137234 28.046906 23.749859 27.888156 24.130859 27.660156 C 24.171208 27.639321 24.209897 27.615122 24.25 27.59375 L 24.25 27.828125 L 25.75 27.828125 L 25.75 21.011719 L 24.25 21.011719 L 24.25 26.365234 C 24.038477 26.438556 23.825083 26.508305 23.617188 26.589844 C 23.265187 26.738844 23.038422 26.764469 22.732422 26.730469 C 22.158422 26.660469 21.720859 26.2035 21.755859 25.8125 C 21.764859 25.0805 21.767906 24.219687 21.753906 23.429688 L 21.75 21.009766 z M 33.25 21.009766 L 33.25 28.009766 L 34.75 28.009766 L 34.75 21.009766 L 33.25 21.009766 z M 39.224609 21.013672 C 38.869609 21.033547 38.514453 21.114406 38.189453 21.253906 C 36.869453 21.831906 36.22 23.191344 36.25 24.402344 C 36.26 24.970344 36.349609 25.565344 36.599609 26.152344 C 36.859609 26.721344 37.319219 27.289234 37.949219 27.615234 C 38.569219 27.950234 39.270391 28.045047 39.900391 27.998047 C 40.280391 27.961047 40.65 27.895203 41 27.783203 L 41 26.759766 C 40.11 26.899766 39.229922 26.899578 38.669922 26.517578 C 38.039922 26.126578 37.74 25.288766 37.75 24.384766 C 37.73 23.564766 38.130547 22.782203 38.810547 22.408203 C 39.450547 22.063203 40.28 22.203266 41 22.697266 L 41 21.466797 C 40.77 21.327797 40.529766 21.216812 40.259766 21.132812 C 39.934766 21.034813 39.579609 20.993797 39.224609 21.013672 z M 29.705078 21.025391 C 29.44075 21.049125 29.177172 21.100391 28.919922 21.181641 C 28.036922 21.459641 27.405359 22.055063 27.318359 22.664062 C 27.156359 23.803062 27.990391 24.470297 28.400391 24.654297 C 28.810391 24.876297 29.179531 24.973312 29.519531 25.070312 C 30.209531 25.235312 30.647641 25.421969 30.806641 25.667969 C 30.893641 25.802969 30.929688 25.905938 30.929688 26.085938 C 30.929687 26.265938 30.889219 26.426969 30.699219 26.542969 C 30.309219 26.755969 29.639297 26.833625 29.029297 26.765625 C 28.419297 26.707625 27.64 26.436781 27 26.175781 L 27 27.25 C 27.59 27.617 28.219141 27.811734 28.869141 27.927734 C 29.639141 28.033734 30.430312 28.101844 31.320312 27.714844 C 31.750313 27.540844 32.271484 27.15175 32.271484 26.09375 C 32.271484 24.98975 31.470312 24.504547 31.070312 24.310547 C 30.670312 24.107547 30.300937 24.010297 29.960938 23.904297 C 29.630938 23.797297 28.759766 23.655297 28.759766 22.904297 C 28.759766 22.591297 29.089844 22.416844 29.339844 22.339844 C 30.179844 22.059844 31.17 22.275172 32 22.701172 L 32 21.462891 C 31.3025 21.128391 30.498062 20.954187 29.705078 21.025391 z M 39.603516 31.009766 C 38.492516 31.009766 37.173172 31.290234 36.201172 31.990234 C 35.923172 32.200234 35.922531 32.480469 36.269531 32.480469 C 37.380531 32.340469 39.881188 31.989141 40.367188 32.619141 C 40.784188 33.179141 39.881844 35.561641 39.464844 36.681641 C 39.325844 37.031641 39.604813 37.100625 39.882812 36.890625 C 41.757812 35.279625 42.244484 31.988359 41.896484 31.568359 C 41.688484 31.219359 40.714516 31.009766 39.603516 31.009766 z M 8.9628906 31.771484 C 8.9071406 31.782359 8.8549062 31.811875 8.8164062 31.859375 C 8.7294063 31.966375 8.7465156 32.125891 8.8535156 32.212891 C 10.913516 33.880891 13.244937 35.152578 15.710938 36.142578 C 18.184937 37.100578 20.808094 37.7575 23.496094 37.9375 C 26.185094 38.1225 28.887422 37.870031 31.482422 37.207031 C 34.079422 36.535031 36.553578 35.501641 38.767578 33.931641 C 38.960578 33.795641 39.035594 33.536453 38.933594 33.314453 C 38.817594 33.063453 38.520531 32.955312 38.269531 33.070312 L 38.230469 33.087891 C 35.965469 34.130891 33.502547 34.863188 31.060547 35.367188 C 28.608547 35.877187 26.096328 36.071375 23.611328 35.984375 C 21.120328 35.883375 18.645891 35.387313 16.212891 34.695312 C 13.798891 33.955313 11.393531 33.023641 9.1445312 31.806641 L 9.1289062 31.796875 C 9.0774063 31.768875 9.0186406 31.760609 8.9628906 31.771484 z"/></svg>

<svg xmlns="http://www.w3.org/2000/svg" xmlns:xlink="http://www.w3.org/1999/xlink" viewBox="0,0,256,256" width="82px" height="82px"><g fill="#ffffff" fill-rule="nonzero" stroke="none" stroke-width="1" stroke-linecap="butt" stroke-linejoin="miter" stroke-miterlimit="10" stroke-dasharray="" stroke-dashoffset="0" font-family="none" font-weight="none" font-size="none" text-anchor="none" style="mix-blend-mode: normal"><path d="M0,256v-256h256v256z" id="bgRectangle"></path></g><g fill="#000000" fill-rule="nonzero" stroke="none" stroke-width="1" stroke-linecap="butt" stroke-linejoin="miter" stroke-miterlimit="10" stroke-dasharray="" stroke-dashoffset="0" font-family="none" font-weight="none" font-size="none" text-anchor="none" style="mix-blend-mode: normal"><g transform="scale(5.12,5.12)"><path d="M14,4c-5.51133,0 -10,4.48867 -10,10v22c0,5.51133 4.48867,10 10,10h22c5.51133,0 10,-4.48867 10,-10v-22c0,-5.51133 -4.48867,-10 -10,-10zM14,6h22c4.43067,0 8,3.56933 8,8v22c0,4.43067 -3.56933,8 -8,8h-22c-4.43067,0 -8,-3.56933 -8,-8v-22c0,-4.43067 3.56933,-8 8,-8zM34,18.00977c-0.55228,0 -1,0.44772 -1,1c0,0.55228 0.44772,1 1,1c0.55228,0 1,-0.44772 1,-1c0,-0.55228 -0.44772,-1 -1,-1zM9.25,21.00977v7h1.5v-5.14062c0.49267,-0.11935 0.9872,-0.23335 1.47656,-0.36328c0.5,-0.136 0.97558,0.23416 1.01758,0.66016l0.00781,4.84375h1.5l0.00195,-2.5l0.00586,-1.25l-0.00586,-0.625l-0.00391,-0.31641c-0.00847,-0.1458 -0.02627,-0.29039 -0.06055,-0.43359c0.51302,-0.12392 1.02762,-0.24363 1.53711,-0.37891c0.5,-0.137 0.97558,0.23516 1.01758,0.66016l0.00781,4.84375h1.5l0.00195,-2.5l0.00586,-1.25l-0.00586,-0.625l-0.00391,-0.31641c-0.009,-0.155 -0.02545,-0.30894 -0.06445,-0.46094c-0.147,-0.609 -0.56175,-1.13197 -1.09375,-1.41797c-0.527,-0.293 -1.19742,-0.33063 -1.73242,-0.14062c-0.56591,0.19294 -1.12758,0.40168 -1.68945,0.60938c-0.16828,-0.18677 -0.3598,-0.35138 -0.57812,-0.46875c-0.527,-0.293 -1.19742,-0.33063 -1.73242,-0.14062c-0.37163,0.1267 -0.73965,0.26662 -1.10937,0.40039v-0.68945zM21.75,21.00977l-1.49805,0.00195l0.00195,2.41992c-0.009,0.823 -0.01723,1.57703 0.00977,2.45703c0.043,0.614 0.37636,1.1733 0.81836,1.5293c0.445,0.361 0.9912,0.55094 1.5332,0.58594c0.522,0.043 1.13462,-0.11575 1.51563,-0.34375c0.04035,-0.02084 0.07904,-0.04503 0.11914,-0.06641v0.23438h1.5v-6.81641h-1.5v5.35352c-0.21152,0.07332 -0.42492,0.14307 -0.63281,0.22461c-0.352,0.149 -0.57877,0.17462 -0.88477,0.14063c-0.574,-0.07 -1.01156,-0.52697 -0.97656,-0.91797c0.009,-0.732 0.01205,-1.59281 -0.00195,-2.38281zM33.25,21.00977v7h1.5v-7zM39.22461,21.01367c-0.355,0.01987 -0.71016,0.10073 -1.03516,0.24023c-1.32,0.578 -1.96945,1.93744 -1.93945,3.14844c0.01,0.568 0.09961,1.163 0.34961,1.75c0.26,0.569 0.71961,1.13689 1.34961,1.46289c0.62,0.335 1.32117,0.42981 1.95117,0.38281c0.38,-0.037 0.74961,-0.10284 1.09961,-0.21484v-1.02344c-0.89,0.14 -1.77008,0.13981 -2.33008,-0.24219c-0.63,-0.391 -0.92992,-1.22881 -0.91992,-2.13281c-0.02,-0.82 0.38055,-1.60256 1.06055,-1.97656c0.64,-0.345 1.46945,-0.20494 2.18945,0.28906v-1.23047c-0.23,-0.139 -0.47023,-0.24998 -0.74023,-0.33398c-0.325,-0.098 -0.68016,-0.13902 -1.03516,-0.11914zM29.70508,21.02539c-0.26433,0.02373 -0.52791,0.075 -0.78516,0.15625c-0.883,0.278 -1.51456,0.87342 -1.60156,1.48242c-0.162,1.139 0.67203,1.80623 1.08203,1.99023c0.41,0.222 0.77914,0.31902 1.11914,0.41602c0.69,0.165 1.12811,0.35166 1.28711,0.59766c0.087,0.135 0.12305,0.23797 0.12305,0.41797c0,0.18 -0.04047,0.34103 -0.23047,0.45703c-0.39,0.213 -1.05992,0.29066 -1.66992,0.22266c-0.61,-0.058 -1.3893,-0.32884 -2.0293,-0.58984v1.07422c0.59,0.367 1.21914,0.56173 1.86914,0.67773c0.77,0.106 1.56117,0.17411 2.45117,-0.21289c0.43,-0.174 0.95117,-0.56309 0.95117,-1.62109c0,-1.104 -0.80117,-1.5892 -1.20117,-1.7832c-0.4,-0.203 -0.76938,-0.30025 -1.10937,-0.40625c-0.33,-0.107 -1.20117,-0.249 -1.20117,-1c0,-0.313 0.33008,-0.48745 0.58008,-0.56445c0.84,-0.28 1.83016,-0.06467 2.66016,0.36133v-1.23828c-0.6975,-0.3345 -1.50194,-0.5087 -2.29492,-0.4375zM39.60352,31.00977c-1.111,0 -2.43034,0.28047 -3.40234,0.98047c-0.278,0.21 -0.27864,0.49023 0.06836,0.49023c1.111,-0.14 3.61166,-0.49133 4.09766,0.13867c0.417,0.56 -0.48534,2.9425 -0.90234,4.0625c-0.139,0.35 0.13997,0.41898 0.41797,0.20898c1.875,-1.611 2.36167,-4.90227 2.01367,-5.32227c-0.208,-0.349 -1.18197,-0.55859 -2.29297,-0.55859zM8.96289,31.77148c-0.05575,0.01087 -0.10798,0.04039 -0.14648,0.08789c-0.087,0.107 -0.06989,0.26652 0.03711,0.35352c2.06,1.668 4.39142,2.93969 6.85742,3.92969c2.474,0.958 5.09716,1.61492 7.78516,1.79492c2.689,0.185 5.39133,-0.06747 7.98633,-0.73047c2.597,-0.672 5.07116,-1.70539 7.28516,-3.27539c0.193,-0.136 0.26802,-0.39519 0.16602,-0.61719c-0.116,-0.251 -0.41306,-0.35914 -0.66406,-0.24414l-0.03906,0.01758c-2.265,1.043 -4.72792,1.7753 -7.16992,2.2793c-2.452,0.51 -4.96422,0.70419 -7.44922,0.61719c-2.491,-0.101 -4.96544,-0.59706 -7.39844,-1.28906c-2.414,-0.74 -4.81936,-1.67167 -7.06836,-2.88867l-0.01562,-0.00977c-0.0515,-0.028 -0.11027,-0.03627 -0.16602,-0.02539z"></path></g></g></svg>
